icons/poster.svg

<svg aria-hidden="true" focusable="false" data-prefix="fas" data-icon="image" class="svg-inline--fa fa-image fa-w-16" role="img" xmlns="http://www.w3.org/2000/svg" viewBox="0 0 512 512"><path fill="currentColor" d="M464 448H48c-26.51 0-48-21.49-48-48V112c0-26.51 21.49-48 48-48h416c26.51 0 48 21.49 48 48v288c0 26.51-21.49 48-48 48zM112 120c-30.928 0-56 25.072-56 56s25.072 56 56 56 56-25.072 56-56-25.072-56-56-56zM64 384h384V272l-87.515-87.515c-4.686-4.686-12.284-4.686-16.971 0L208 320l-55.515-55.515c-4.686-4.686-12.284-4.686-16.971 0L64 336v48z"></path></svg>

<?xml version="1.0" encoding="UTF-8" standalone="no"?>
<!DOCTYPE svg PUBLIC "-//W3C//DTD SVG 1.1//EN" "http://www.w3.org/Graphics/SVG/1.1/DTD/svg11.dtd">
<svg width="100%" height="100%" viewBox="0 0 512 512" version="1.1" xmlns="http://www.w3.org/2000/svg" xmlns:xlink="http://www.w3.org/1999/xlink" xml:space="preserve" xmlns:serif="http://www.serif.com/" style="fill-rule:evenodd;clip-rule:evenodd;stroke-linejoin:round;stroke-miterlimit:2;">
    <path d="M464,477.91L48,477.91C21.49,477.91 0,456.42 0,429.91L0,80.498C0,53.988 21.49,32.498 48,32.498L464,32.498C490.51,32.498 512,53.988 512,80.498L512,429.91C512,456.42 490.51,477.91 464,477.91ZM112,120C81.072,120 56,145.072 56,176C56,206.928 81.072,232 112,232C142.928,232 168,206.928 168,176C168,145.072 142.928,120 112,120ZM64,384L448,384L448,272L360.485,184.485C355.799,179.799 348.201,179.799 343.514,184.485L208,320L152.485,264.485C147.799,259.799 140.201,259.799 135.514,264.485L64,336L64,384Z" style="fill-rule:nonzero;"/>
</svg>
